lib/assets/icons/svg/outlined-action-filter.svg

<svg xmlns="http://www.w3.org/2000/svg" viewBox="0 0 24 24"><path d="M19.25 17.303a.51.51 0 0 1-.5.5h-5.088l-.02.083c-.45 1.708-2.579 2.289-3.834 1.046a2.288 2.288 0 0 1-.632-1.168H5.25a.51.51 0 0 1-.5-.5.5.5 0 0 1 .5-.5h3.944l.011-.045c.449-1.708 2.578-2.289 3.833-1.046.317.315.53.708.624 1.13h5.048a.5.5 0 0 1 .54.5zm-8.19-1.33a1.378 1.378 0 1 0 .727 2.659 1.378 1.378 0 0 0-.727-2.659zm8.19-4.039a.5.5 0 0 1-.5.5h-1.406c-.007.035-.016.07-.025.105-.449 1.708-2.579 2.289-3.833 1.046a2.293 2.293 0 0 1-.629-1.151H5.29a.5.5 0 0 1-.5-.5.51.51 0 0 1 .5-.5h7.577c.004-.021.01-.041.015-.062.449-1.708 2.579-2.289 3.833-1.046.312.309.523.695.62 1.108h1.375a.51.51 0 0 1 .54.5zm-4.512-1.308a1.377 1.377 0 1 0 .725 2.659 1.377 1.377 0 1 0-.725-2.659zm4.012-4.429a.51.51 0 0 1 .5.5.5.5 0 0 1-.5.5h-7.872l-.02.083c-.449 1.708-2.579 2.289-3.833 1.047A2.297 2.297 0 0 1 6.4 7.193v.004H5.29a.5.5 0 0 1-.5-.5.51.51 0 0 1 .5-.5h1.111l.02-.084C6.87 4.406 9 3.824 10.254 5.067c.317.315.53.708.624 1.13zM8.277 5.368a1.378 1.378 0 1 0 .725 2.658 1.377 1.377 0 1 0-.725-2.658z"/></svg>

<svg viewBox="0 0 24 24" xmlns="http://www.w3.org/2000/svg">
  <path  d="M 19.25 17.303 C 19.245 17.577 19.024 17.798 18.75 17.803 L 13.662 17.803 C 13.656 17.831 13.649 17.858 13.642 17.886 C 13.192 19.594 11.063 20.175 9.808 18.932 C 9.481 18.608 9.265 18.2 9.176 17.764 L 5.25 17.764 C 4.976 17.759 4.755 17.538 4.75 17.264 C 4.75 16.988 4.974 16.764 5.25 16.764 L 9.194 16.764 C 9.197 16.749 9.201 16.734 9.205 16.719 C 9.654 15.011 11.783 14.43 13.038 15.673 C 13.355 15.988 13.568 16.381 13.662 16.803 L 18.71 16.803 C 19.002 16.78 19.251 17.01 19.25 17.303 Z M 11.06 15.973 C 10.037 16.252 9.7 17.535 10.453 18.281 C 10.803 18.628 11.311 18.761 11.786 18.632 C 12.809 18.353 13.147 17.07 12.393 16.324 C 12.043 15.977 11.535 15.843 11.06 15.973 Z M 19.25 11.934 C 19.25 12.21 19.026 12.434 18.75 12.434 L 17.344 12.434 C 17.337 12.469 17.328 12.504 17.319 12.539 C 16.87 14.247 14.74 14.828 13.486 13.585 C 13.163 13.265 12.949 12.864 12.857 12.434 L 5.29 12.434 C 5.014 12.434 4.79 12.21 4.79 11.934 C 4.795 11.66 5.016 11.439 5.29 11.434 L 12.867 11.434 C 12.871 11.413 12.877 11.393 12.882 11.372 C 13.331 9.664 15.461 9.083 16.715 10.326 C 17.027 10.635 17.238 11.021 17.335 11.434 L 18.71 11.434 C 18.999 11.417 19.245 11.644 19.25 11.934 Z M 14.738 10.626 C 13.714 10.905 13.377 12.188 14.131 12.934 C 14.48 13.281 14.988 13.414 15.463 13.285 C 16.487 13.006 16.824 11.723 16.07 10.977 C 15.721 10.63 15.213 10.496 14.738 10.626 Z M 18.75 6.197 C 19.024 6.202 19.245 6.423 19.25 6.697 C 19.25 6.973 19.026 7.197 18.75 7.197 L 10.878 7.197 C 10.872 7.225 10.865 7.252 10.858 7.28 C 10.409 8.988 8.279 9.569 7.025 8.327 C 6.707 8.012 6.494 7.616 6.4 7.193 C 6.4 7.194 6.4 7.196 6.4 7.197 L 5.29 7.197 C 5.014 7.197 4.79 6.973 4.79 6.697 C 4.795 6.423 5.016 6.202 5.29 6.197 L 6.401 6.197 C 6.407 6.169 6.414 6.141 6.421 6.113 C 6.87 4.406 9 3.824 10.254 5.067 C 10.571 5.382 10.784 5.775 10.878 6.197 Z M 8.277 5.368 C 7.253 5.647 6.916 6.929 7.669 7.676 C 8.019 8.022 8.527 8.156 9.002 8.026 C 10.026 7.747 10.363 6.465 9.609 5.718 C 9.26 5.372 8.752 5.238 8.277 5.368 Z" style=""/>
</svg>
